symbols/web/medical_information/materialsymbolssharp/medical_information_wght700fill1_24px.svg

<svg xmlns="http://www.w3.org/2000/svg" height="24" width="24"><path d="M7 18.575h2.775v-1.8h1.8V14h-1.8v-1.8H7V14H5.2v2.775H7Zm5.7-3.625h6.1v-2.525h-6.1Zm0 3.5h4.1v-2.5h-4.1Zm3.15-12.3h7v16.7H1.15V6.15h7v-5h7.7Zm-4.55 2h1.4V4.3h-1.4Z"/></svg>

<svg xmlns="http://www.w3.org/2000/svg" height="24" width="24"><path d="M7 18.575H9.775V16.775H11.575V14H9.775V12.2H7V14H5.2V16.775H7ZM12.7 14.95H18.8V12.425H12.7ZM12.7 18.45H16.8V15.95H12.7ZM15.85 6.15H22.85V22.85H1.15V6.15H8.15V1.15H15.85ZM11.3 8.15H12.7V4.3H11.3Z"/></svg>
